icons/media/go-backward-5-24.svg

<svg width="24" height="24" viewBox="0 0 24 24" fill="none" xmlns="http://www.w3.org/2000/svg">
<path d="M13.589 0.580996C13.3369 0.453244 13.0344 0.478064 12.8065 0.6452L9.05648 3.3952C8.86382 3.53648 8.75 3.7611 8.75 4C8.75 4.23891 8.86382 4.46353 9.05648 4.60481L12.8065 7.35481C13.0344 7.52194 13.3369 7.54676 13.589 7.41901C13.8411 7.29126 14 7.03263 14 6.75V4.73663C17.7294 5.63603 20.5 8.99446 20.5 13C20.5 17.6944 16.6944 21.5 12 21.5C7.30558 21.5 3.5 17.6944 3.5 13C3.5 10.6526 4.45057 8.52861 5.98959 6.98959C6.28249 6.6967 6.28249 6.22183 5.98959 5.92893C5.6967 5.63604 5.22182 5.63604 4.92893 5.92893C3.12011 7.73776 2 10.2388 2 13C2 18.5228 6.47715 23 12 23C17.5228 23 22 18.5228 22 13C22 8.16208 18.5645 4.12658 14 3.20004V1.25C14 0.967376 13.8411 0.708748 13.589 0.580996Z" fill="black"/>
<path fill-rule="evenodd" clip-rule="evenodd" d="M9.33902 9.75C9.33902 9.33579 9.67481 9 10.089 9H14.2661C14.6803 9 15.0161 9.33579 15.0161 9.75C15.0161 10.1642 14.6803 10.5 14.2661 10.5H10.839V12.1649C11.1934 12.0548 11.5854 12 12.0161 12C12.7796 12 13.5776 12.231 14.2008 12.7297C14.8424 13.2433 15.2661 14.0185 15.2661 15C15.2661 16.9547 13.6235 18.25 12.0161 18.25C10.5041 18.25 9.52528 17.2331 9.07835 16.3338C8.89401 15.9628 9.04527 15.5127 9.41621 15.3284C9.78714 15.144 10.2373 15.2953 10.4216 15.6662C10.711 16.2486 11.2612 16.75 12.0161 16.75C12.894 16.75 13.7661 16.0306 13.7661 15C13.7661 14.4888 13.5611 14.1391 13.2634 13.9008C12.9472 13.6477 12.4952 13.5 12.0161 13.5C11.5236 13.5 11.1983 13.6006 10.9719 13.7334C10.6274 13.9355 10.2394 13.9073 9.95603 13.7784C9.66792 13.6474 9.33902 13.334 9.33902 12.8458V9.75Z" fill="black"/>
</svg>

<svg xmlns="http://www.w3.org/2000/svg" width="24" height="24"><path d="M13.589.581a.75.75 0 00-.783.064l-3.75 2.75a.75.75 0 000 1.21l3.75 2.75A.75.75 0 0014 6.75V4.737A8.5 8.5 0 115.99 6.99a.75.75 0 10-1.061-1.061A9.971 9.971 0 002 13c0 5.523 4.477 10 10 10s10-4.477 10-10c0-4.838-3.436-8.873-8-9.8V1.25a.75.75 0 00-.411-.669z"/><path fill-rule="evenodd" d="M9.339 9.75a.75.75 0 01.75-.75h4.177a.75.75 0 010 1.5H10.84v1.665c.354-.11.746-.165 1.177-.165.764 0 1.562.231 2.185.73.641.513 1.065 1.288 1.065 2.27 0 1.955-1.643 3.25-3.25 3.25-1.512 0-2.49-1.017-2.938-1.916a.75.75 0 111.344-.668c.289.583.84 1.084 1.594 1.084.878 0 1.75-.72 1.75-1.75 0-.511-.205-.86-.503-1.1-.316-.252-.768-.4-1.247-.4-.492 0-.818.1-1.044.233a1.11 1.11 0 01-1.016.045c-.288-.13-.617-.444-.617-.932V9.75z"/></svg>
